X:12566
T:Paddy Carey. JC.106
M:6/8
L:1/8
Q:200
S:John Clare,Poet,Helpston. (1793-1864)
R:Jig
O:England
A:Northamptonshire
N:
Z:P Headford
K:D
A|A2d dcd|f2d dcd|B2ee2f|g2ec2A|A2d dcd|f2d dcd|
cBA ABc|defe2||!A|d2fg2b|a2b afd|def gab|afde2A|
d2fg2b|aba agd|fgf ecA|B2cd2|]


